Adwaita++-Dark/actions/16/media-seek-forward.svg

<svg fill="none" height="16" viewBox="0 0 16 16" width="16" xmlns="http://www.w3.org/2000/svg">
  <g fill="#e6ddff">
    <path d="m1.93756 4c.17739.008.35118.0592.5.15625l5 3c.2824.17971.4375.51173.4375.84375s-.1551.66404-.4375.84375l-5 3.00005c-.14882.097-.32261.1482-.5.1562h-.15625-.843749v-8h.843749z"/>
    <path d="m8.93756 4c.17739.008.35118.0592.5.15625l5.00004 3c.2824.17971.4375.51173.4375.84375s-.1551.66404-.4375.84375l-5.00004 3.00005c-.14882.097-.32261.1482-.5.1562h-.15625-.84375v-8h.84375z"/>
  </g>
</svg>

<svg xmlns="http://www.w3.org/2000/svg" fill="none" width="16" height="16" viewBox="0 0 16 16">
 <path fill="#E6DDFF" d="M1.93756 4C2.11495 4.008 2.28874 4.0592 2.43756 4.15625L7.43756 7.15625C7.71996 7.33596 7.87506 7.66798 7.87506 8C7.87506 8.33202 7.71996 8.66404 7.43756 8.84375L2.43756 11.8438C2.28874 11.9408 2.11495 11.992 1.93756 12H1.78131H0.937561V4H1.78131H1.93756Z"/>
 <path fill="#E6DDFF" d="M8.93756 4C9.11495 4.008 9.28874 4.0592 9.43756 4.15625L14.4376 7.15625C14.72 7.33596 14.8751 7.66798 14.8751 8C14.8751 8.33202 14.72 8.66404 14.4376 8.84375L9.43756 11.8438C9.28874 11.9408 9.11495 11.992 8.93756 12H8.78131H7.93756V4H8.78131H8.93756Z"/>
</svg>
